X: 1764
T: Severim Cân ü Gönülden
C: Şevki Bey
O: Turkey
F: http://compmusic.upf.edu/node/140
N: hicaz--sarki--agiraksak--severim_can_u--sevki_bey
N: makam= hicaz
N: form= sarki
N: usul= agiraksak = 9/4
M: 9/4
L: 1/16
K: C _7/8B ^f ^c 
Q: 1/4=75
%%MIDI tuningsystem comma53
z8 z4 F2G2 A8 B3A B2c2 B2c2  | A12 d2e2 =f3e d2e2 c8 B2A2  | 
w:  Se ve rim  cân_  |  *  ü  gö nül *  *  *  den   | 
{a}g4 =f2e2 d2cd e2{f}ed d8 G3A B2c2 d4  | \
w:  *  *  *  *  se *  *  *  *  *  *  ni  SAZ  | 
c2d4c2 d6c2 d2{a}g2 =f2e2 d2c2 B2A2 G2A2  | 
w:  ter *  *  *  *  sâ   | 
B2c2 d2e2 =f2d2 e2c2 d8 g6^f2 f2{g}fe  | \
w:  *  *  *  *  *  *  çi çe ğim   SAZ  | 
e12 e2{g}fe e8 e12  | f2ef g2e2 d4 e2f2 g2a2 =f2e2 e3d d3=c c3_1/4B  | 
w:  *  Se *  ni  *  ka bil   |  *  *  *  *  *  *  mi  gö rüp  *  *  *  sev  | 
A2{B}AG A2B2 c2d2 e2{=f}ed d8 G3A B2c2 d4  | \
w:  *  *  *  *  *  *  *  *  me *  mek  *  ey  SAZ  | 
d3c d2e2 d2e2 c6B2 {c}B2c2 B2c2 A8  | 
w:  göz  *  *  *  *  *  *  göz   | 
{a}g2=f2 e2d2 c3B B2BA A8 g6^f2 f2{g}fe  | \
w:  *  göz *  *  *  *  *  be be *  ğim   SAZ  | 
e12 e2{g}fe e8 e12  | 
w:  *  Se *  ni  *  ka bil   | 
f2ef g2e2 d4 e2f2 g2a2 =f2e2 e3d d3=c c3_1/4B  | \
w:  *  *  *  *  *  *  mi  gö rüp  *  *  *  sev  | 
A2{B}AG A2B2 c2d2 e2{=f}ed d8 G3A B2c2 d4  | 
w:  *  *  *  *  *  *  *  *  me *  mek  *  ey  SAZ  | 
d3c d2e2 d2e2 c6B2 {c}B2c2 B2c2 A8  | \
w:  göz  *  *  *  *  *  *  göz   | 
{a}g2=f2 e2d2 c3B B2BA A8 a2_1/4b2 a2g2 ^f2g2  | 
w:  *  göz *  *  *  *  *  be be *  ğim   SAZ  | 
a12 f2g2 a8 a3g g3f f3e  | e3d d3=c c3_1/4B g2g2 g2f2 a2f2 f2e2 g2e2 e2d2  | 
w:  *  Sa na  hem tâ   |  *  *  *  *  *  *  bu  gü zel *  *  *  lik  | 
d2{=f}ed =c2_1/4B2 B2g2 ^f2e2 e2d2 {e}d2^c2 d8 z4  | \
w:  *  *  *  *  *  *  te  bu *  *  lun *  *  *  *  maz   | 
c2d4c2 d6c2 d2{a}g2 =f2e2 d2c2 B2A2 G2A2  | 
w:  ah   | 
B2c2 d2e2 =f2d2 e2c2 d8 g6^f2 f2{g}fe  | \
w:  *  *  *  *  *  *  me le ğim   SAZ  | 
e12 e2{g}fe e8 e12  | f2ef g2e2 d4 e2f2 g2a2 =f2e2 e3d d3=c c3_1/4B  | 
w:  *  Se *  ni  *  ka bil   |  *  *  *  *  *  *  mi  gö rüp  *  *  *  sev  | 
A2{B}AG A2B2 c2d2 e2{=f}ed d8 G3A B2c2 d4  | \
w:  *  *  *  *  *  *  *  *  me *  mek  *  ey  SAZ  | 
d3c d2e2 d2e2 c6B2 {c}B2c2 B2c2 A8  | 
w:  göz  *  *  *  *  *  *  göz   | 
{a}g2=f2 e2d2 c3B B2BA A8 g6^f2 f2{g}fe  | \
w:  *  göz *  *  *  *  *  be be *  ğim   SAZ  | 
e12 e2{g}fe e8 e12  | 
w:  *  Se *  ni  *  ka bil   | 
f2ef g2e2 d4 e2f2 g2a2 =f2e2 e3d d3=c c3_1/4B  | \
w:  *  *  *  *  *  *  mi  gö rüp  *  *  *  sev  | 
A2{B}AG A2B2 c2d2 e2{=f}ed d8 G3A B2c2 d4  | 
w:  *  *  *  *  *  *  *  *  me *  mek  *  ey  SAZ  | 
d3c d2e2 d2e2 c6B2 {c}B2c2 B2c2 A8  | \
w:  göz  *  *  *  *  *  *  göz   | 
{a}g2=f2 e2d2 c3B B2BA A8 |
w:  *  göz *  *  *  *  *  be be *  ğim    | 


